X: 9
M: C
L: 1/8
K: D
|: d2B2 BcdB | A2F2 F3A | G2E2 EFGE |1 F2D2 D2fe :|2 F2D2 D2-D2 |]
"ex." vAu(G |F2) vAu(FG2) vBu(G | A2) y8 y8 y8 y8 y8 y8 y8 y8 y8
aboot 80 years auld whin sh\"u played him ta me.  Whin sh\"u played him,
so dat du could nearly see da steps o' da polka.  Dere is different

try da first bar o' him da wye dat we're written him at da end o'
da t\"un.


